X:1
T: The Earl of Elgin
C:Nathaniel Gow
R:Strathspey
Q: 128
K:E
M:4/4
L:1/16
|:G2|E3G B2G2 BBB2 B2G2|Bdef agfe f2F2 F2G2|E3G B2G2 BBB2 B2a2|g2fe f2ed e2E2 E2a2|
g3f e2B2 e2g2 e2B2|cdef edcB c2f2 f3a|g3f e2B2 e2g2 b2B2|c3B cBAG B2e2 e2a2|
g3f e2B2 e2g2 e2B2|cdef edcB c2f2 f2a2|gb3 fg3 eg3 ce3|B3e f4 g3e e2g2|
E3G B2G2 BBB2 B2G2|Bdef agfe f2F2 F2G2|E3G B2G2 BBB2 B2a2|g2fe f2ed e2E2 E2:|
